Catalina-dark/actions/16/show-menu.svg

<?xml version="1.0" encoding="UTF-8" standalone="no"?>
<svg
   xmlns:dc="http://purl.org/dc/elements/1.1/"
   xmlns:cc="http://creativecommons.org/ns#"
   xmlns:rdf="http://www.w3.org/1999/02/22-rdf-syntax-ns#"
   xmlns:svg="http://www.w3.org/2000/svg"
   xmlns="http://www.w3.org/2000/svg"
   xmlns:sodipodi="http://sodipodi.sourceforge.net/DTD/sodipodi-0.dtd"
   xmlns:inkscape="http://www.inkscape.org/namespaces/inkscape"
   width="16"
   height="16"
   viewBox="0 0 16 16"
   version="1.1"
   id="svg7"
   sodipodi:docname="kt-show-statusbar.svg"
   inkscape:version="0.92.4 5da689c313, 2019-01-14">
  <metadata
     id="metadata11">
    <rdf:RDF>
      <cc:Work
         rdf:about="">
        <dc:format>image/svg+xml</dc:format>
        <dc:type
           rdf:resource="http://purl.org/dc/dcmitype/StillImage" />
      </cc:Work>
    </rdf:RDF>
  </metadata>
  <sodipodi:namedview
     pagecolor="#ffffff"
     bordercolor="#666666"
     borderopacity="1"
     objecttolerance="10"
     gridtolerance="10"
     guidetolerance="10"
     inkscape:pageopacity="0"
     inkscape:pageshadow="2"
     inkscape:window-width="640"
     inkscape:window-height="480"
     id="namedview9"
     showgrid="false"
     inkscape:zoom="14.75"
     inkscape:cx="6.8135593"
     inkscape:cy="8"
     inkscape:window-x="0"
     inkscape:window-y="26"
     inkscape:window-maximized="0"
     inkscape:current-layer="svg7" />
  <defs
     id="defs3">
    <style
       id="current-color-scheme"
       type="text/css">
   .ColorScheme-Text { color:#5c616c; } .ColorScheme-Highlight { color:#5294e2; }
  </style>
  </defs>
  <path
     style="fill:#f1f6f8;fill-opacity:0.8509804"
     class="ColorScheme-Text"
     d="M 10.583984 1.5546875 L 9.2460938 4.0664062 L 0 4.0664062 L 0 11.933594 L 5.0566406 11.933594 L 4.09375 13.740234 L 5.4160156 14.445312 L 6.7539062 11.933594 L 16 11.933594 L 16 4.0664062 L 10.943359 4.0664062 L 11.90625 2.2597656 L 10.583984 1.5546875 z M 0.76757812 4.5996094 L 8.9609375 4.5996094 L 8.4628906 5.5371094 L 8.3417969 5.5371094 L 8.3417969 5.7636719 L 6.8828125 8.5039062 L 6.8828125 6.96875 L 6.1230469 6.96875 L 6.1230469 9.9296875 L 5.3398438 11.400391 L 0.76757812 11.400391 L 0.76757812 4.5996094 z M 10.660156 4.5996094 L 15.232422 4.5996094 L 15.232422 11.400391 L 7.0390625 11.400391 L 8.3417969 8.953125 L 8.3417969 10.400391 L 9.1015625 10.400391 L 9.1015625 7.5273438 L 10.660156 4.5996094 z M 6.5078125 5.6835938 C 6.3830125 5.6835938 6.2758531 5.7135413 6.1894531 5.7695312 C 6.1062531 5.8260613 6.0644531 5.9162156 6.0644531 6.0410156 C 6.0644531 6.1642156 6.1062531 6.254366 6.1894531 6.3125 C 6.2758531 6.37063 6.3830125 6.4003906 6.5078125 6.4003906 C 6.6304785 6.4003906 6.7344465 6.37063 6.8203125 6.3125 C 6.9093825 6.25223 6.953125 6.1620816 6.953125 6.0410156 C 6.953125 5.9786156 6.9410856 5.9245924 6.9160156 5.8808594 C 6.8936156 5.8355294 6.8619125 5.7988623 6.8203125 5.7695312 C 6.7813825 5.7407312 6.7337304 5.7198313 6.6777344 5.7070312 C 6.6249344 5.6926312 6.5691455 5.6835938 6.5078125 5.6835938 z M 2.0234375 5.8320312 L 2.0234375 10.400391 L 2.7988281 10.400391 L 2.7988281 8.46875 L 5.0292969 8.46875 L 5.0292969 7.9570312 L 2.7988281 7.9570312 L 2.7988281 6.34375 L 5.1894531 6.34375 L 5.1894531 5.8320312 L 2.0234375 5.8320312 z M 12.199219 6.90625 C 11.918152 6.90625 11.661334 6.9457398 11.427734 7.0273438 C 11.1968 7.1084138 10.998431 7.2284996 10.832031 7.3847656 C 10.665097 7.5388996 10.535092 7.7262848 10.443359 7.9492188 C 10.351629 8.1721517 10.306641 8.4257844 10.306641 8.7089844 C 10.306641 8.9900514 10.357301 9.2403184 10.457031 9.4589844 C 10.557298 9.6781844 10.698639 9.8614991 10.878906 10.009766 C 11.062906 10.1575 11.280403 10.270856 11.533203 10.347656 C 11.786003 10.424986 12.065494 10.46289 12.371094 10.462891 C 12.512961 10.462891 12.642253 10.457219 12.761719 10.449219 C 12.883852 10.440719 13.001814 10.428826 13.113281 10.410156 C 13.227414 10.391486 13.337759 10.367221 13.443359 10.337891 C 13.551626 10.308561 13.660551 10.27438 13.771484 10.234375 L 13.771484 9.7285156 C 13.663218 9.7663856 13.556772 9.8005653 13.451172 9.8320312 C 13.345572 9.8608313 13.234694 9.88545 13.121094 9.90625 C 13.009628 9.92492 12.894151 9.9390887 12.771484 9.9492188 C 12.652018 9.9598887 12.520773 9.9648437 12.378906 9.9648438 C 11.959173 9.9648438 11.6416 9.8715056 11.427734 9.6816406 C 11.216534 9.4923066 11.103711 9.1951028 11.089844 8.7929688 L 13.976562 8.7929688 L 13.976562 8.4414062 C 13.976562 8.2126063 13.934762 8.0041392 13.851562 7.8164062 C 13.771033 7.6270723 13.655019 7.4653642 13.501953 7.3320312 C 13.349419 7.1965582 13.160606 7.0925982 12.941406 7.0195312 C 12.721672 6.9448653 12.474419 6.90625 12.199219 6.90625 z M 12.183594 7.3789062 C 12.355861 7.3789062 12.502333 7.4013956 12.625 7.4472656 C 12.747133 7.4931356 12.847914 7.557425 12.925781 7.640625 C 13.006851 7.723825 13.065828 7.8244264 13.101562 7.9433594 C 13.140493 8.0596264 13.160156 8.1901642 13.160156 8.3320312 L 11.107422 8.3320312 C 11.138352 8.0216313 11.244267 7.7837597 11.427734 7.6210938 C 11.613867 7.4584268 11.866261 7.3789063 12.183594 7.3789062 z"
     id="path5" />
</svg>

<svg width="16" height="16" version="1.1" viewBox="0 0 16 16" xmlns="http://www.w3.org/2000/svg">
<defs>
<style id="current-color-scheme" type="text/css">.ColorScheme-Text { color:#5c616c; } .ColorScheme-Highlight { color:#5294e2; }</style>
</defs>
<path class="ColorScheme-Text" d="m10.584 1.5547-1.3379 2.5117h-9.2461v7.8672h5.0566l-0.96289 1.8066 1.3223 0.70508 1.3379-2.5117h9.2461v-7.8672h-5.0566l0.96289-1.8066-1.3223-0.70508zm-9.8164 3.0449h8.1934l-0.49805 0.9375h-0.12109v0.22656l-1.459 2.7402v-1.5352h-0.75977v2.9609l-0.7832 1.4707h-4.5723v-6.8008zm9.8926 0h4.5723v6.8008h-8.1934l1.3027-2.4473v1.4473h0.75977v-2.873l1.5586-2.9277zm-4.1523 1.084c-0.1248 0-0.23196 0.029948-0.31836 0.085937-0.0832 0.05653-0.125 0.14668-0.125 0.27148 0 0.1232 0.0418 0.21335 0.125 0.27148 0.0864 0.05813 0.19356 0.087891 0.31836 0.087891 0.12267 0 0.22663-0.029761 0.3125-0.087891 0.08907-0.06027 0.13281-0.15042 0.13281-0.27148 0-0.0624-0.012039-0.11642-0.037109-0.16016-0.0224-0.04533-0.054103-0.081997-0.095703-0.11133-0.03893-0.0288-0.086582-0.0497-0.14258-0.0625-0.0528-0.0144-0.10859-0.023437-0.16992-0.023437zm-4.4844 0.14844v4.5684h0.77539v-1.9316h2.2305v-0.51172h-2.2305v-1.6133h2.3906v-0.51172h-3.166zm10.176 1.0742c-0.28107 0-0.53788 0.03949-0.77148 0.12109-0.23093 0.08107-0.4293 0.20116-0.5957 0.35742-0.16693 0.15413-0.29694 0.34152-0.38867 0.56445-0.09173 0.22293-0.13672 0.47657-0.13672 0.75977 0 0.28107 0.05066 0.53133 0.15039 0.75 0.10027 0.2192 0.24161 0.40251 0.42188 0.55078 0.184 0.14773 0.4015 0.26109 0.6543 0.33789 0.2528 0.07733 0.53229 0.11523 0.83789 0.11524 0.14187 0 0.27116-0.005672 0.39062-0.013672 0.12213-0.0085 0.2401-0.020393 0.35156-0.039063 0.11413-0.01867 0.22448-0.042935 0.33008-0.072265 0.10827-0.02933 0.21719-0.063511 0.32812-0.10352v-0.50586c-0.10827 0.03787-0.21471 0.07205-0.32031 0.10352-0.1056 0.0288-0.21648 0.053419-0.33008 0.074219-0.11147 0.01867-0.22694 0.032839-0.34961 0.042969-0.11947 0.01067-0.25071 0.015625-0.39258 0.015625-0.41973 0-0.73731-0.093338-0.95117-0.2832-0.2112-0.18933-0.32402-0.48654-0.33789-0.88867h2.8867v-0.35156c0-0.2288-0.0418-0.43727-0.125-0.625-0.080529-0.18933-0.19654-0.35104-0.34961-0.48438-0.15253-0.13547-0.34135-0.23943-0.56055-0.3125-0.21973-0.074666-0.46699-0.11328-0.74219-0.11328zm-0.015625 0.47266c0.17227 0 0.31874 0.022489 0.44141 0.068359 0.12213 0.04587 0.22291 0.11016 0.30078 0.19336 0.08107 0.0832 0.14005 0.1838 0.17578 0.30273 0.038931 0.11627 0.058594 0.2468 0.058594 0.38867h-2.0527c0.03093-0.3104 0.13684-0.54827 0.32031-0.71094 0.18613-0.16267 0.43853-0.24219 0.75586-0.24219z" fill="#dedede" fill-opacity=".85098"/>
</svg>
